!!!OTL: ALS DIE WUNDERSCHOENE ANNA
!!!ARE: Europa, Mitteleuropa, Deutschland, Lahngegend; Westerwald; Wetterau
!!!SCT: E0042K
!!!YEM: Copyright 1995, estate of Helmut Schaffrath.
**kern
*ICvox
*Ivox
*M2/4
*k[b-e-a-]
*E-:
{8e-
8g
=1
8b-
8b-
8b-
8b-
=2
8a-
8g}
{8f
8e-
=3
8g
8f
8f
8f
=4
4f}
{8e-
8g
=5
8b-
8b-
8b-
8b-
=6
8a-
8g}
{8f
8e-
=7
8g
8f
8f
8f
=8
4f}
{4ee-
=9
8b-
8b-
8g
8f
=10
4e-}
{8g
8g
=11
4a-
8a-
8cc
=12
8b-
8ee-}
{4ee-
=13
8b-
8b-
8g
8f
=14
4e-}
{8g
8g
=15
4b-
8b-
8a-
=16
4g}
==
!!!AGN: erzaehlendes Volks - Lied, Ritter -, Raeuber - Sage, Ballade ?
!!!ONB: ESAC (Essen Associative Code) Database: ERK1
!!!AMT: simple duple
!!!AIN: vox
!!!EED: Helmut Schaffrath
!!!EEV: 1.0
*-
